X:1
T:Title
%%score 1 2 ( 3 4 )
L:1/8
M:4/4
K:F
V:1 treble nm="Part_1"
V:2 treble nm="Part_2"
V:3 bass nm="Part_3"
V:4 bass 
V:1
 F8 | A2 Bc G4 | z2 GG GGGA | B>B B2 z F FF/F/ | F4 FFFG | A2 A2 z ccB | A2 A4 GF | G2 G2 z4 | %8
 G>G G2 z GGA | F4 E3 F | D8 | E4 z2 G2- | G4 ^G3 A | A4 A4 | z2 c4 BA | G3 G G4 | F8 ||[K:C] z8 | %18
 z8 | z8 | z8 | z8 | z8 | z8 | z8 | z8 | z8 | z8 | z8 | z8 | z8 | z8 | z8 ||[K:F][K:treble] A8 | %34
 z2 A4 GA | ^F4 FFFF | ^FFFG A>A A2 | AAAA BB z G | AA z F GGEE | F>F F2 z2 DD | %40
 E>F E/F/E/F/ G2 G2 | A3 G AGGF | G2 z c A2 F2 | DD z2 EE z2 | F>F F2 z GGG | AA z A c2 Bc | %46
 A2 AB c2 c2 | (c6 B2) | c8 | z8 | z8 | z8 | z8 | z8 | z8 | z AGF G2 GA | F4 E4 | z8 | %58
 z G/A/ B/A/A/G/ A>A A2 | z4 z G cB/A/ | B2 B2 z A d/d/c/B/ | c2 c2 z2 c2- | c2 Bc A>A A2 | %63
 z AAA G2 FG | E4 D4 | z F BA/G/ A2 A2 | z G c/c/B/A/ B2 B2 | z4 z2 c2- | c2 BA G>G G2 | %69
 z GGG A2 Bc | G8 | A4 z2 F2 | F2 FF F2 GA | B6 B2 | A8 | z8 | z8 | z2 G2 G2 AB | c8- | c6 BA | %80
 G6 G2 | A8 |] %82
V:2
[K:C] z8 | z8 | z8 | z8 | z8 | z8 | z8 | z8 | z8 | z8 | z8 | z8 | z8 | z8 | z8 | z8 | z8 || %17
[K:F][K:treble] C8 | C2 DE F2 F2 | z2 F4 FE | F4 E2 z G | CCCD E2 EE | EEEF G2 G2 | E>E E2 EEED | %24
 E>E E2 F<EE>D | E4 z EEE | F>F F2 z _EED | D2 D2 z2 FF | F2 _EF D>D D2 | z DCB, C2 C2 | %30
 z2 CD E F2 F | F2 F2 (F2 E2) | F8 || F8 | z2 C4 ^CC | D4 DDDD | DDDE ^F>F F2 | ^FFFF GG z E | %38
 FF z D EE^CC | D>D D2 z2 =B,B, | C3/2 D/C/D/C/D/ E2 E2 | F3 EFEED | E4 z4 | z8 | z8 | z8 | z8 | %47
 z8 | z2 z F E2 C2 | A,A, z2 B,B, z2 | C>C C2 z DDD | EE z E F2 EF | D2 DE F2 F2 | F6 E2 | F8 | %55
 z FED E2 E2 | z F D2 ^C4 | z E/F/ G/F/F/E/ F2 F2 | z8 | z C FE/D/ E2 E2 | z D G/G/F/E/ F2 F2 | %61
 z4 z2 A2- | A2 GG F>F F2 | z FFF E2 DD | D2 ^C2 D4 | z4 z C FE/D/ | E2 E2 z D G/G/F/E/ | %67
 F2 F2 z2 A2- | A2 FE E>E E2 | z EEE F2 FF | F4 E4 | F8 | z8 | z8 | z4 z2 C2 | C2 CC C2 DE | %76
 F6 F2 | E8 | z2 C2 C2 DE | F4 F2 F2 | F6 E2 | F8 |] %82
V:3
 F,,8 | F,,4 C,4- | C,8 | G,,3 A,, B,,4 | B,,8 | F,,8- | F,,8 | C,8- | C,8 | D,4 E,4 | F,4 G,4 | %11
 C,8 | C,4 =B,,4 | A,,6 G,,2 | F,,8 | C,2 B,,2 C,4 | F,,8 || C,8 | C,8 | F,8 | C,8- | C,8 | C,8 | %23
 C,8- | C,4 F,,4 | C,8 | A,,8 | B,,8 | A,,4 B,,4- | B,,4 F,4- | F,2 E,2 D,2 A,,2 | B,,2 D,2 C,4 | %32
 !fermata!F,,8 || z8 | F,4 E,4 | D,8 | D,8- | D,4 G,,2 C,2 | F,,2 B,,2 G,,2 A,,2 | D,4 G,4 | C,8 | %41
 F,,8 | C,2 E,2 F,4 | B,,4 C,4 | D,4 E,4 | F,4 E,4 | F,4 A,4 | G,8 | C,8 | F,,4 G,,4 | A,,4 B,,4 | %51
 C,4 A,,4 | B,,4 D,4 | C,8 | F,,8- | F,,4 C,2 ^C,2 | D,4 A,,4 | A,,4 D,4 | C,4 F,4 | F,,4 C,4 | %60
 G,,4 D,2 B,,2 | F,4 F,,4- | F,,2 G,,2 D,4 | D,4 E,2 F,2 | G,2 A,2 D,4 | B,,4 F,4 | C,4 G,,4 | %67
 D,4 z2 A,,2- | A,,2 B,,2 C,4- | C,2 C,2 A,,2 F,,2 | C,8 | F,,8 | F,3 E, D,2 C,2 | B,,8 | F,8 | %75
 F,6 E,2 | D,8 | C,8 | C,6 B,,2 | A,,4 G,,4 | C,8 | F,,8 |] %82
V:4
 x8 | x8 | x8 | x8 | x8 | x8 | x8 | x8 | x8 | x8 | x8 | x8 | x8 | x8 | x8 | x8 | x8 || x8 | x8 | %19
 x8 | x8 | x8 | x8 | x8 | x8 | x8 | x8 | x8 | x8 | x8 | x8 | x8 | x8 || F,,8 | x8 | x8 | x8 | x8 | %38
 x8 | x8 | x8 | x8 | x8 | x8 | x8 | x8 | x8 | x8 | x8 | x8 | x8 | x8 | x8 | x8 | x8 | x8 | x8 | %57
 x8 | x8 | x8 | x8 | x8 | x8 | x8 | x8 | x8 | x8 | x8 | x8 | x8 | x8 | x8 | x8 | x8 | x8 | x8 | %76
 x8 | x8 | x8 | x8 | x8 | x8 |] %82

